assets/IconCategories/12.svg

<?xml version="1.0" encoding="UTF-8" standalone="no" ?>
<!DOCTYPE svg PUBLIC "-//W3C//DTD SVG 1.1//EN" "http://www.w3.org/Graphics/SVG/1.1/DTD/svg11.dtd">
<svg xmlns="http://www.w3.org/2000/svg" xmlns:xlink="http://www.w3.org/1999/xlink" version="1.1" width="1080" height="1080" viewBox="0 0 1080 1080" xml:space="preserve">
<desc>Created with Fabric.js 5.2.4</desc>
<defs>
</defs>
<rect x="0" y="0" width="100%" height="100%" fill="transparent"></rect>
<g transform="matrix(1 0 0 1 540 540)" id="776726f2-fd3b-426a-b702-e54ccf3f5472"  >
<rect style="stroke: none; stroke-width: 1; stroke-dasharray: none; stroke-linecap: butt; stroke-dashoffset: 0; stroke-linejoin: miter; stroke-miterlimit: 4; fill: rgb(255,255,255); fill-rule: nonzero; opacity: 1; visibility: hidden;" vector-effect="non-scaling-stroke"  x="-540" y="-540" rx="0" ry="0" width="1080" height="1080" />
</g>
<g transform="matrix(1 0 0 1 540 540)" id="3ef35243-4613-4c61-8b3c-507a85e2b542"  >
</g>
<g transform="matrix(20.34 0 0 20.34 540 540)" id="c3a49a34-da4c-4f42-b2ed-b2dff58657d7"  >
<path style="stroke: rgb(0,0,0); stroke-width: 0; stroke-dasharray: none; stroke-linecap: butt; stroke-dashoffset: 0; stroke-linejoin: miter; stroke-miterlimit: 4; fill: rgb(0,0,0); fill-rule: nonzero; opacity: 1;" vector-effect="non-scaling-stroke"  transform=" translate(-24.98, -24)" d="M 31 8 C 31 8 27.636719 7.925781 25.28125 10.28125 C 24.882813 10.679688 24.882813 11.320313 25.28125 11.71875 C 25.679688 12.117188 26.320313 12.117188 26.71875 11.71875 C 28.03125 10.40625 29.636719 10.164063 30.375 10.09375 C 30.578125 10.523438 30.804688 11 30.90625 11.5 C 30.917969 11.574219 30.941406 11.648438 30.96875 11.71875 C 30.894531 12.175781 30.664063 12.851563 30.1875 13.40625 C 29.789063 13.804688 29.398438 14 29 14 C 22.898438 14 21.695313 16.90625 21.09375 18.40625 C 20.992188 18.605469 20.90625 18.800781 20.90625 19 C 17.707031 19 15.304688 18.101563 14.90625 17.5 C 13.507813 15.101563 12.398438 15 8 15 C 1.101563 15 0.101563 18.414063 0 18.8125 C -0.101563 19.113281 -0.0117188 19.386719 0.1875 19.6875 C 0.289063 19.789063 1.507813 21 3.90625 21 L 4.40625 21 C 5.804688 20.398438 7.304688 20 8.90625 20 C 15.007813 20 19.90625 24.898438 19.90625 31 C 19.90625 31.800781 19.792969 32.605469 19.59375 33.40625 C 21.394531 33.90625 23.414063 34 24.3125 34 L 24.5 34 C 26.300781 34 28.898438 33.507813 30 32.40625 C 30.5 31.90625 30.59375 31.40625 30.59375 30.90625 C 29.722656 24.886719 32.734375 22.15625 34.125 21.21875 C 34.523438 22.128906 34.929688 23.042969 35.375 23.9375 C 33.296875 25.539063 32 28.121094 32 30.90625 C 32 35.90625 36 39.90625 41 39.90625 C 46 39.90625 50 35.90625 50 30.90625 C 50 25.90625 46 22 41 22 C 39.601563 22 38.292969 22.304688 37.09375 22.90625 C 37.695313 24.105469 38.394531 25.304688 39.09375 26.40625 C 39.695313 26.207031 40.300781 26 41 26 C 43.800781 26 46 28.199219 46 31 C 46 33.800781 43.800781 36 41 36 C 38.199219 36 36 33.800781 36 31 C 36 29.601563 36.507813 28.398438 37.40625 27.5 C 36.71875 26.417969 36.03125 25.242188 35.4375 23.96875 C 35.929688 23.578125 36.507813 23.199219 37.09375 22.90625 C 36.195313 21.105469 35.289063 19.210938 34.6875 17.3125 C 34.652344 17.222656 34.617188 17.136719 34.5625 17.0625 C 33.757813 14.425781 32.980469 11.167969 32.90625 11.09375 C 32.894531 11.039063 32.863281 10.988281 32.84375 10.9375 C 32.5625 9.714844 31.875 8.53125 31.875 8.53125 C 31.703125 8.207031 31.367188 8.003906 31 8 Z M 37.40625 27.5 C 38.605469 29.5 40.011719 31.289063 41.3125 32.6875 C 41.511719 32.886719 41.800781 33 42 33 C 42.199219 33 42.488281 32.886719 42.6875 32.6875 C 43.085938 32.289063 43.085938 31.710938 42.6875 31.3125 C 41.488281 30.011719 40.199219 28.304688 39 26.40625 C 38.398438 26.707031 37.90625 27 37.40625 27.5 Z M 37.59375 12 C 36.792969 12 36.011719 12.113281 35.3125 12.3125 C 35.914063 14.511719 36.6875 17.386719 37.1875 18.6875 C 37.1875 18.789063 37.3125 18.898438 37.3125 19 L 37.59375 19 C 38.894531 19 39.710938 18.6875 40.3125 18.1875 C 41.011719 17.488281 41 16.488281 41 15.6875 L 41 15.3125 C 41 14.511719 41.011719 13.511719 40.3125 12.8125 C 39.710938 12.3125 38.894531 12 37.59375 12 Z M 9 22 C 4 22 0 26 0 31 C 0 36 4 40 9 40 C 13.601563 40 17.40625 36.5 17.90625 32 L 13.90625 32 C 13.40625 34.300781 11.398438 36 9 36 C 6.199219 36 4 33.800781 4 31 C 4 28.199219 6.199219 26 9 26 C 11.398438 26 13.40625 27.699219 13.90625 30 L 17.90625 30 C 17.40625 25.5 13.601563 22 9 22 Z M 13.90625 30 L 11.84375 30 C 11.445313 28.816406 10.347656 28 9 28 C 7.300781 28 6 29.300781 6 31 C 6 32.699219 7.300781 34 9 34 C 10.347656 34 11.445313 33.183594 11.84375 32 L 13.90625 32 C 14.007813 31.699219 14 31.300781 14 31 C 14 30.699219 14.007813 30.300781 13.90625 30 Z" stroke-linecap="round" />
</g>
</svg>

<svg xmlns="http://www.w3.org/2000/svg" width="1080" height="1080" viewBox="0 0 1080 1080"><path  transform="translate(31.907 51.84)scale(20.34)" d="M31 8s-3.363-.074-5.719 2.281a1.014 1.014 0 0 0 0 1.438c.399.398 1.04.398 1.438 0 1.312-1.313 2.918-1.555 3.656-1.625.203.43.43.906.531 1.406q.02.112.063.219a3.6 3.6 0 0 1-.782 1.687c-.398.399-.789.594-1.187.594-6.102 0-7.305 2.906-7.906 4.406-.102.2-.188.395-.188.594-3.199 0-5.601-.898-6-1.5C13.508 15.102 12.398 15 8 15c-6.898 0-7.898 3.414-8 3.813-.102.3-.012.574.188.875C.289 19.789 1.508 21 3.906 21h.5c1.399-.602 2.899-1 4.5-1 6.102 0 11 4.898 11 11 0 .8-.113 1.605-.312 2.406 1.8.5 3.82.594 4.718.594h.188c1.8 0 4.398-.492 5.5-1.594.5-.5.594-1 .594-1.5-.871-6.02 2.14-8.75 3.531-9.687.398.91.805 1.824 1.25 2.718C33.297 25.54 32 28.122 32 30.908c0 5 4 9 9 9s9-4 9-9S46 22 41 22a8.6 8.6 0 0 0-3.906.906c.601 1.2 1.3 2.399 2 3.5C39.695 26.207 40.3 26 41 26c2.8 0 5 2.2 5 5s-2.2 5-5 5-5-2.2-5-5c0-1.398.508-2.602 1.406-3.5-.687-1.082-1.375-2.258-1.968-3.531.492-.39 1.07-.77 1.656-1.063-.899-1.8-1.805-3.695-2.407-5.593a1 1 0 0 0-.124-.25c-.805-2.637-1.583-5.895-1.657-5.97-.011-.054-.043-.105-.062-.155-.282-1.223-.969-2.407-.969-2.407A1 1 0 0 0 31 8Zm6.406 19.5c1.2 2 2.606 3.79 3.907 5.188.199.199.488.312.687.312s.488-.113.688-.312c.398-.399.398-.977 0-1.376-1.2-1.3-2.489-3.007-3.688-4.906-.602.301-1.094.594-1.594 1.094Zm.188-15.5c-.801 0-1.582.113-2.282.313.602 2.199 1.376 5.074 1.876 6.374 0 .102.124.211.124.313h.282c1.3 0 2.117-.312 2.718-.812.7-.7.688-1.7.688-2.5v-.376c0-.8.012-1.8-.687-2.5-.602-.5-1.418-.812-2.72-.812ZM9 22c-5 0-9 4-9 9s4 9 9 9c4.602 0 8.406-3.5 8.906-8h-4c-.5 2.3-2.508 4-4.906 4-2.8 0-5-2.2-5-5s2.2-5 5-5c2.398 0 4.406 1.7 4.906 4h4c-.5-4.5-4.304-8-8.906-8Zm4.906 8h-2.062c-.399-1.184-1.496-2-2.844-2-1.7 0-3 1.3-3 3s1.3 3 3 3c1.348 0 2.445-.816 2.844-2h2.062c.102-.3.094-.7.094-1s.008-.7-.094-1Z"/></svg>
